;FLAVOR:Marlin
;TIME:11606
;Filament used: 9.20247m
;Layer height: 0.2
;MINX:64
;MINY:49.5
;MINZ:0.2
;MAXX:156
;MAXY:170.5
;MAXZ:17
;Generated with Cura_SteamEngine 5.4.0
M82 ;absolute extrusion mode
; Ender 3 S1 Pro Start G-code
; M413 S0 ; Disable power loss recovery
G92 E0 ; Reset Extruder

; Prep surfaces before auto home for better accuracy
M140 S60
M104 S200

G28 O ; Home all untrusted axes
G1 Z10.0 F3000 ; Move Z Axis up little to prevent scratching of Heat Bed
G1 X0 Y0

M190 S60
M109 S200

G1 X0.1 Y20 Z0.3 F5000.0 ; Move to start position
G1 X0.1 Y200.0 Z0.3 F1500.0 E15 ; Draw the first line
G1 X0.4 Y200.0 Z0.3 F5000.0 ; Move to side a little
G1 X0.4 Y20 Z0.3 F1500.0 E30 ; Draw the second line
G92 E0 ; Reset Extruder
G1 Z2.0 F3000 ; Move Z Axis up little to prevent scratching of Heat Bed
G1 X5 Y20 Z0.3 F5000.0 ; Move over to prevent blob squish

G92 E0
G92 E0
G1 F2400 E-0.8
;LAYER_COUNT:85
;LAYER:0
M107
M204 S2000
G0 F7500 X66.731 Y53.265 Z0.2
M204 S500
;TYPE:SKIRT
G1 F2400 E0
G1 F1500 X67.456 Y52.513 E0.03474
G1 X68.192 Y51.876 E0.06712
G1 X68.924 Y51.346 E0.09718
G1 X69.821 Y50.811 E0.13191
G1 X70.699 Y50.39 E0.1643
G1 X71.612 Y50.048 E0.19673
G1 X72.549 Y49.789 E0.22906
G1 X73.516 Y49.611 E0.26176
G1 X74.655 Y49.515 E0.29978
G1 X75.312 Y49.5 E0.32164
G1 X144.304 Y49.5 E2.61632
G1 X145.184 Y49.513 E2.64559
G1 X146.156 Y49.572 E2.67798
G1 X147.119 Y49.718 E2.71038
G1 X148.066 Y49.949 E2.7428
G1 X148.954 Y50.249 E2.77397
G1 X149.846 Y50.639 E2.80635
G1 X150.729 Y51.126 E2.83989
G1 X151.48 Y51.628 E2.86994
G1 X152.295 Y52.286 E2.90478
G1 X152.993 Y52.964 E2.93714
G1 X153.629 Y53.701 E2.96952
G1 X154.199 Y54.491 E3.00192
G1 X154.661 Y55.267 E3.03196
G1 X155.115 Y56.209 E3.06674
G1 X155.444 Y57.087 E3.09792
G1 X155.713 Y58.059 E3.13147
G1 X155.89 Y59.025 E3.16413
G1 X155.985 Y60.155 E3.20185
G1 X156 Y60.83 E3.2243
G1 X155.999 Y158.9 E6.48612
G1 X155.988 Y159.663 E6.51151
G1 X155.931 Y160.636 E6.54392
G1 X155.786 Y161.599 E6.57631
G1 X155.557 Y162.545 E6.60869
G1 X155.246 Y163.469 E6.64111
G1 X154.854 Y164.36 E6.67349
G1 X154.386 Y165.212 E6.70582
G1 X153.864 Y165.993 E6.73706
G1 X153.231 Y166.778 E6.7706
G1 X152.606 Y167.429 E6.80062
G1 X151.817 Y168.117 E6.83544
G1 X151.057 Y168.667 E6.86664
G1 X150.19 Y169.184 E6.90021
G1 X149.312 Y169.606 E6.93262
G1 X148.401 Y169.948 E6.96498
G1 X147.462 Y170.209 E6.9974
G1 X146.496 Y170.387 E7.03007
G1 X145.345 Y170.485 E7.06849
G1 X144.67 Y170.5 E7.09094
G1 X75.564 Y170.499 E9.38942
G1 X74.831 Y170.488 E9.4138
G1 X73.859 Y170.431 E9.44618
G1 X72.896 Y170.285 E9.47858
G1 X71.95 Y170.056 E9.51095
G1 X71.026 Y169.744 E9.54339
G1 X70.136 Y169.352 E9.57574
G1 X69.313 Y168.901 E9.60695
G1 X68.474 Y168.34 E9.64052
G1 X67.77 Y167.774 E9.67056
G1 X67.017 Y167.049 E9.70533
G1 X66.38 Y166.313 E9.7377
G1 X65.85 Y165.582 E9.76773
G1 X65.314 Y164.685 E9.80249
G1 X64.892 Y163.807 E9.83489
G1 X64.55 Y162.895 E9.86729
G1 X64.29 Y161.957 E9.89966
G1 X64.112 Y160.988 E9.93243
G1 X64.014 Y159.809 E9.97178
G1 X64 Y159.158 E9.99343
G1 X64.001 Y61.025 E13.25735
G1 X64.012 Y60.325 E13.28064
G1 X64.07 Y59.352 E13.31306
G1 X64.216 Y58.389 E13.34545
G1 X64.446 Y57.443 E13.37783
G1 X64.759 Y56.52 E13.41025
G1 X65.151 Y55.63 E13.44259
G1 X65.621 Y54.777 E13.47499
G1 X66.164 Y53.969 E13.50737
G1 X66.731 Y53.265 E13.53743
M204 S2000
G0 F7500 X67.043 Y53.516
M204 S500
G1 F1500 X67.718 Y52.815 E13.5698
G1 X68.427 Y52.2 E13.60101
G1 X69.159 Y51.67 E13.63107
G1 X69.995 Y51.171 E13.66345
G1 X70.84 Y50.764 E13.69465
G1 X71.719 Y50.433 E13.72589
G1 X72.622 Y50.182 E13.75706
G1 X73.55 Y50.01 E13.78845
G1 X74.689 Y49.914 E13.82647
G1 X75.321 Y49.9 E13.8475
G1 X144.298 Y49.9 E16.14168
G1 X145.16 Y49.912 E16.17035
G1 X146.097 Y49.968 E16.20157
G1 X147.025 Y50.107 E16.23278
G1 X147.938 Y50.328 E16.26403
G1 X148.794 Y50.616 E16.29407
G1 X149.686 Y51.006 E16.32645
G1 X150.507 Y51.459 E16.35763
G1 X151.258 Y51.961 E16.38768
G1 X152.017 Y52.573 E16.42011
G1 X152.691 Y53.226 E16.45132
G1 X153.305 Y53.935 E16.48251
G1 X153.855 Y54.696 E16.51374
G1 X154.317 Y55.472 E16.54378
G1 X154.74 Y56.349 E16.57617
G1 X155.069 Y57.227 E16.60735
G1 X155.32 Y58.132 E16.63859
G1 X155.491 Y59.059 E16.66994
G1 X155.586 Y60.189 E16.70766
G1 X155.6 Y60.83 E16.72898
G1 X155.599 Y158.895 E19.99064
G1 X155.589 Y159.64 E20.01542
G1 X155.535 Y160.577 E20.04664
G1 X155.397 Y161.506 E20.07787
G1 X155.178 Y162.418 E20.10907
G1 X154.88 Y163.308 E20.14029
G1 X154.503 Y164.168 E20.17152
G1 X154.053 Y164.99 E20.20269
G1 X153.531 Y165.771 E20.23393
G1 X152.942 Y166.501 E20.26513
G1 X152.317 Y167.152 E20.29514
G1 X151.582 Y167.793 E20.32758
G1 X150.822 Y168.343 E20.35878
G1 X150.016 Y168.824 E20.39
G1 X149.171 Y169.232 E20.42121
G1 X148.293 Y169.563 E20.45242
G1 X147.389 Y169.816 E20.48364
G1 X146.462 Y169.988 E20.515
G1 X145.311 Y170.086 E20.55342
G1 X144.67 Y170.1 E20.57475
G1 X75.57 Y170.099 E22.87302
G1 X74.854 Y170.089 E22.89684
G1 X73.918 Y170.035 E22.92802
G1 X72.989 Y169.896 E22.95926
G1 X72.077 Y169.677 E22.99046
G1 X71.187 Y169.378 E23.02169
G1 X70.328 Y169.001 E23.05289
G1 X69.505 Y168.55 E23.0841
G1 X68.725 Y168.028 E23.11532
G1 X68.021 Y167.462 E23.14536
G1 X67.319 Y166.787 E23.17775
G1 X66.704 Y166.078 E23.20897
G1 X66.174 Y165.347 E23.239
G1 X65.674 Y164.511 E23.2714
G1 X65.266 Y163.666 E23.30261
G1 X64.935 Y162.788 E23.33382
G1 X64.683 Y161.884 E23.36503
G1 X64.511 Y160.955 E23.39645
G1 X64.413 Y159.776 E23.4358
G1 X64.4 Y159.158 E23.45636
G1 X64.401 Y61.031 E26.72008
G1 X64.411 Y60.348 E26.7428
G1 X64.466 Y59.411 E26.77402
G1 X64.605 Y58.483 E26.80523
G1 X64.825 Y57.571 E26.83643
G1 X65.125 Y56.681 E26.86767
G1 X65.502 Y55.822 E26.89887
G1 X65.953 Y55 E26.93005
G1 X66.476 Y54.22 E26.96129
G1 X67.043 Y53.516 E26.99135
M204 S2000
G0 F7500 X67.355 Y53.767
M204 S500
G1 F1500 X67.981 Y53.117 E27.02137
G1 X68.662 Y52.524 E27.0514
G1 X69.394 Y51.994 E27.08146
G1 X70.169 Y51.531 E27.11149
G1 X70.982 Y51.138 E27.14152
G1 X71.827 Y50.818 E27.17157
G1 X72.696 Y50.575 E27.20159
G1 X73.584 Y50.409 E27.23163
G1 X74.723 Y50.313 E27.26965
G1 X75.33 Y50.3 E27.28984
G1 X144.293 Y50.3 E29.58356
G1 X145.137 Y50.311 E29.61164
G1 X146.039 Y50.364 E29.64169
G1 X146.932 Y50.496 E29.67171
G1 X147.81 Y50.707 E29.70175
G1 X148.666 Y50.995 E29.73179
G1 X149.493 Y51.357 E29.76181
G1 X150.285 Y51.792 E29.79187
G1 X151.036 Y52.294 E29.82191
G1 X151.739 Y52.861 E29.85195
G1 X152.389 Y53.488 E29.88199
G1 X152.981 Y54.17 E29.91202
G1 X153.511 Y54.901 E29.94206
G1 X153.973 Y55.677 E29.97209
G1 X154.366 Y56.49 E30.00213
G1 X154.684 Y57.335 E30.03216
G1 X154.927 Y58.205 E30.0622
G1 X155.092 Y59.093 E30.09224
G1 X155.187 Y60.223 E30.12996
G1 X155.2 Y60.83 E30.15015
G1 X155.199 Y158.89 E33.41164
G1 X155.19 Y159.617 E33.43582
G1 X155.139 Y160.519 E33.46587
G1 X155.008 Y161.413 E33.49592
G1 X154.799 Y162.291 E33.52594
G1 X154.513 Y163.148 E33.55599
G1 X154.152 Y163.976 E33.58603
G1 X153.72 Y164.768 E33.61604
G1 X153.219 Y165.52 E33.64609
G1 X152.653 Y166.224 E33.67614
G1 X152.028 Y166.875 E33.70615
G1 X151.347 Y167.469 E33.73621
G1 X150.616 Y168 E33.76626
G1 X149.842 Y168.464 E33.79627
G1 X149.029 Y168.858 E33.82632
G1 X148.185 Y169.178 E33.85634
G1 X147.315 Y169.423 E33.88641
G1 X146.428 Y169.589 E33.91642
G1 X145.277 Y169.687 E33.95484
G1 X144.67 Y169.7 E33.97503
G1 X75.575 Y169.699 E36.27314
G1 X74.877 Y169.69 E36.29636
G1 X73.976 Y169.639 E36.32638
G1 X73.082 Y169.507 E36.35643
G1 X72.204 Y169.298 E36.38645
G1 X71.347 Y169.011 E36.41651
G1 X70.52 Y168.65 E36.44652
G1 X69.727 Y168.217 E36.47658
G1 X68.976 Y167.716 E36.5066
G1 X68.272 Y167.15 E36.53665
G1 X67.621 Y166.524 E36.56668
G1 X67.028 Y165.843 E36.59672
G1 X66.498 Y165.112 E36.62675
G1 X66.034 Y164.337 E36.65679
G1 X65.64 Y163.524 E36.68684
G1 X65.32 Y162.68 E36.71686
G1 X65.076 Y161.81 E36.74692
G1 X64.91 Y160.922 E36.77696
G1 X64.813 Y159.767 E36.81551
G1 X64.8 Y159.158 E36.83577
G1 X64.801 Y61.036 E40.09932
G1 X64.81 Y60.371 E40.12144
G1 X64.862 Y59.469 E40.1515
G1 X64.994 Y58.576 E40.18152
G1 X65.204 Y57.698 E40.21155
G1 X65.491 Y56.841 E40.2416
G1 X65.853 Y56.014 E40.27163
G1 X66.286 Y55.222 E40.30165
G1 X66.788 Y54.471 E40.3317
G1 X67.355 Y53.767 E40.36176
M204 S2000
G1 F2400 E39.56176
;MESH:Batttery Case 1.stl
G0 F7500 X74.335 Y61.3
G0 X144.4 Y158.9
M204 S500
;TYPE:WALL-INNER
G1 F2400 E40.36176
G1 F1500 X144.4 Y61.1 E43.6146
G1 X75.6 Y61.1 E45.9029
G1 X75.6 Y158.9 E49.15574
G1 X144.4 Y158.9 E51.44404
M204 S2000
G0 F7500 X144.8 Y159.3
M204 S500
;TYPE:WALL-OUTER
G1 F1500 X144.8 Y60.7 E54.72349
G1 X75.2 Y60.7 E57.03839
G1 X75.2 Y159.3 E60.31784
G1 X144.8 Y159.3 E62.63275
M204 S2000
G0 F7500 X144.53 Y159.03
G0 X144.3 Y158.54
G0 X144.04 Y158.54
M204 S500
;TYPE:SKIN
G1 F1500 X75.96 Y158.54 E64.8971
G1 X75.96 Y61.46 E68.12599
G1 X144.04 Y61.46 E70.39034
G1 X144.04 Y158.54 E73.61924
M204 S2000
G1 F2400 E72.81924
G0 F7500 X144.3 Y158.54
G0 X75.772 Y158.728
G0 X75.7 Y158.184
G0 X76.159 Y158.184
M204 S500
G1 F2400 E73.61924
G1 F1500 X76.315 Y158.339 E73.62655
M204 S2000
G0 F7500 X76.88 Y158.339
M204 S500
G1 F1500 X76.159 Y157.618 E73.66046
M204 S2000
G0 F7500 X76.159 Y157.052
M204 S500
G1 F1500 X77.446 Y158.339 E73.721
M204 S2000
G0 F7500 X78.012 Y158.339
M204 S500
G1 F1500 X76.159 Y156.486 E73.80816
M204 S2000
G0 F7500 X76.159 Y155.921
M204 S500
G1 F1500 X78.577 Y158.339 E73.9219
M204 S2000
G0 F7500 X79.143 Y158.339
M204 S500
G1 F1500 X76.159 Y155.355 E74.06225
M204 S2000
G0 F7500 X76.159 Y154.789
M204 S500
G1 F1500 X79.709 Y158.339 E74.22924
M204 S2000
G0 F7500 X80.275 Y158.339
M204 S500
G1 F1500 X76.159 Y154.224 E74.42282
M204 S2000
G0 F7500 X76.159 Y153.658
M204 S500
G1 F1500 X80.84 Y158.339 E74.643
M204 S2000
G0 F7500 X81.406 Y158.339
M204 S500
G1 F1500 X76.159 Y153.092 E74.8898
M204 S2000
G0 F7500 X76.159 Y152.527
M204 S500
G1 F1500 X81.972 Y158.339 E75.1632
M204 S2000
G0 F7500 X82.537 Y158.339
M204 S500
G1 F1500 X76.159 Y151.961 E75.4632
M204 S2000
G0 F7500 X76.159 Y151.395
M204 S500
G1 F1500 X83.103 Y158.339 E75.78983
M204 S2000
G0 F7500 X83.669 Y158.339
M204 S500
G1 F1500 X76.159 Y150.83 E76.14305
M204 S2000
G0 F7500 X76.159 Y150.264
M204 S500
G1 F1500 X84.234 Y158.339 E76.52287
M204 S2000
G0 F7500 X84.8 Y158.339
M204 S500
G1 F1500 X76.159 Y149.698 E76.92932
M204 S2000
G0 F7500 X76.159 Y149.133
M204 S500
G1 F1500 X85.366 Y158.339 E77.36237
M204 S2000
G0 F7500 X85.931 Y158.339
M204 S500
G1 F1500 X76.159 Y148.567 E77.82201
M204 S2000
G0 F7500 X76.159 Y148.001
M204 S500
G1 F1500 X86.497 Y158.339 E78.30828
M204 S2000
G0 F7500 X87.063 Y158.339
M204 S500
G1 F1500 X76.159 Y147.436 E78.82115
M204 S2000
G0 F7500 X76.159 Y146.87
M204 S500
G1 F1500 X87.628 Y158.339 E79.36061
M204 S2000
G0 F7500 X88.194 Y158.339
M204 S500
G1 F1500 X76.159 Y146.304 E79.9267
M204 S2000
G0 F7500 X76.159 Y145.738
M204 S500
G1 F1500 X88.76 Y158.339 E80.51941
M204 S2000
G0 F7500 X89.325 Y158.339
M204 S500
G1 F1500 X76.159 Y145.173 E81.1387
M204 S2000
G0 F7500 X76.159 Y144.607
M204 S500
G1 F1500 X89.891 Y158.339 E81.78461
M204 S2000
G0 F7500 X90.457 Y158.339
M204 S500
G1 F1500 X76.159 Y144.041 E82.45715
M204 S2000
G0 F7500 X76.159 Y143.476
M204 S500
G1 F1500 X91.023 Y158.339 E83.15628
M204 S2000
G0 F7500 X91.588 Y158.339
M204 S500
G1 F1500 X76.159 Y142.91 E83.88201
M204 S2000
G0 F7500 X76.159 Y142.344
M204 S500
G1 F1500 X92.154 Y158.339 E84.63437
M204 S2000
G0 F7500 X92.72 Y158.339
M204 S500
G1 F1500 X76.159 Y141.779 E85.41332
M204 S2000
G0 F7500 X76.159 Y141.213
M204 S500
G1 F1500 X93.285 Y158.339 E86.21888
M204 S2000
G0 F7500 X93.851 Y158.339
M204 S500
G1 F1500 X76.159 Y140.647 E87.05106
M204 S2000
G0 F7500 X76.159 Y140.082
M204 S500
G1 F1500 X94.417 Y158.339 E87.90983
M204 S2000
G0 F7500 X94.982 Y158.339
M204 S500
G1 F1500 X76.159 Y139.516 E88.79521
M204 S2000
G0 F7500 X76.159 Y138.95
M204 S500
G1 F1500 X95.548 Y158.339 E89.70721
M204 S2000
G0 F7500 X96.114 Y158.339
M204 S500
G1 F1500 X76.159 Y138.385 E90.64581
M204 S2000
G0 F7500 X76.159 Y137.819
M204 S500
G1 F1500 X96.679 Y158.339 E91.61101
M204 S2000
G0 F7500 X97.245 Y158.339
M204 S500
G1 F1500 X76.159 Y137.253 E92.60283
M204 S2000
G0 F7500 X76.159 Y136.687
M204 S500
G1 F1500 X97.811 Y158.339 E93.62127
M204 S2000
G0 F7500 X98.376 Y158.339
M204 S500
G1 F1500 X76.159 Y136.122 E94.66629
M204 S2000
G0 F7500 X76.159 Y135.556
M204 S500
G1 F1500 X98.942 Y158.339 E95.73793
M204 S2000
G0 F7500 X99.508 Y158.339
M204 S500
G1 F1500 X76.159 Y134.99 E96.8362
M204 S2000
G0 F7500 X76.159 Y134.425
M204 S500
G1 F1500 X100.073 Y158.339 E97.96104
M204 S2000
G0 F7500 X100.639 Y158.339
M204 S500
G1 F1500 X76.159 Y133.859 E99.1125
M204 S2000
G0 F7500 X76.159 Y133.293
M204 S500
G1 F1500 X101.205 Y158.339 E100.29059
M204 S2000
G0 F7500 X101.771 Y158.339
M204 S500
G1 F1500 X76.159 Y132.728 E101.49528
M204 S2000
G0 F7500 X76.159 Y132.162
M204 S500
G1 F1500 X102.336 Y158.339 E102.72656
M204 S2000
G0 F7500 X102.902 Y158.339
M204 S500
G1 F1500 X76.159 Y131.596 E103.98447
M204 S2000
G0 F7500 X76.159 Y131.031
M204 S500
G1 F1500 X103.468 Y158.339 E105.26898
M204 S2000
G0 F7500 X104.033 Y158.339
M204 S500
G1 F1500 X76.159 Y130.465 E106.58009
M204 S2000
G0 F7500 X76.159 Y129.899
M204 S500
G1 F1500 X104.599 Y158.339 E107.91782
M204 S2000
G0 F7500 X105.165 Y158.339
M204 S500
G1 F1500 X76.159 Y129.334 E109.28215
M204 S2000
G0 F7500 X76.159 Y128.768
M204 S500
G1 F1500 X105.73 Y158.339 E110.67308
M204 S2000
G0 F7500 X106.296 Y158.339
M204 S500
G1 F1500 X76.159 Y128.202 E112.09063
M204 S2000
G0 F7500 X76.159 Y127.637
M204 S500
G1 F1500 X106.862 Y158.339 E113.53478
M204 S2000
G0 F7500 X107.427 Y158.339
M204 S500
G1 F1500 X76.159 Y127.071 E115.00553
M204 S2000
G0 F7500 X76.159 Y126.505
M204 S500
G1 F1500 X107.993 Y158.339 E116.5029
M204 S2000
G0 F7500 X108.559 Y158.339
M204 S500
G1 F1500 X76.159 Y125.939 E118.0269
M204 S2000
G0 F7500 X76.159 Y125.374
M204 S500
G1 F1500 X109.124 Y158.339 E119.57747
M204 S2000
G0 F7500 X109.69 Y158.339
M204 S500
G1 F1500 X76.159 Y124.808 E121.15467
M204 S2000
G0 F7500 X76.159 Y124.242
M204 S500
G1 F1500 X110.256 Y158.339 E122.75849
M204 S2000
G0 F7500 X110.822 Y158.339
M204 S500
G1 F1500 X76.159 Y123.677 E124.3889
M204 S2000
G0 F7500 X76.159 Y123.111
M204 S500
G1 F1500 X111.387 Y158.339 E126.04592
M204 S2000
G0 F7500 X111.953 Y158.339
M204 S500
G1 F1500 X76.159 Y122.545 E127.72956
M204 S2000
G0 F7500 X76.159 Y121.98
M204 S500
G1 F1500 X112.519 Y158.339 E129.4398
M204 S2000
G0 F7500 X113.084 Y158.339
M204 S500
G1 F1500 X76.159 Y121.414 E131.17664
M204 S2000
G0 F7500 X76.159 Y120.848
M204 S500
G1 F1500 X113.65 Y158.339 E132.9401
M204 S2000
G0 F7500 X114.216 Y158.339
M204 S500
G1 F1500 X76.159 Y120.283 E134.73016
M204 S2000
G0 F7500 X76.159 Y119.717
M204 S500
G1 F1500 X114.781 Y158.339 E136.54682
M204 S2000
G0 F7500 X115.347 Y158.339
M204 S500
G1 F1500 X76.159 Y119.151 E138.39011
M204 S2000
G0 F7500 X76.159 Y118.586
M204 S500
G1 F1500 X115.913 Y158.339 E140.25999
M204 S2000
G0 F7500 X116.478 Y158.339
M204 S500
G1 F1500 X76.159 Y118.02 E142.15647
M204 S2000
G0 F7500 X76.159 Y117.454
M204 S500
G1 F1500 X117.044 Y158.339 E144.07958
M204 S2000
G0 F7500 X117.61 Y158.339
M204 S500
G1 F1500 X76.159 Y116.888 E146.0293
M204 S2000
G0 F7500 X76.159 Y116.323
M204 S500
G1 F1500 X118.175 Y158.339 E148.00561
M204 S2000
G0 F7500 X118.741 Y158.339
M204 S500
G1 F1500 X76.159 Y115.757 E150.00853
M204 S2000
G0 F7500 X76.159 Y115.191
M204 S500
G1 F1500 X119.307 Y158.339 E152.03808
M204 S2000
G0 F7500 X119.872 Y158.339
M204 S500
G1 F1500 X76.159 Y114.626 E154.09421
M204 S2000
G0 F7500 X76.159 Y114.06
M204 S500
G1 F1500 X120.438 Y158.339 E156.17696
M204 S2000
G0 F7500 X121.004 Y158.339
M204 S500
G1 F1500 X76.159 Y113.494 E158.28633
M204 S2000
G0 F7500 X76.159 Y112.929
M204 S500
G1 F1500 X121.57 Y158.339 E160.4223
M204 S2000
G0 F7500 X122.135 Y158.339
M204 S500
G1 F1500 X76.159 Y112.363 E162.58487
M204 S2000
G0 F7500 X76.159 Y111.797
M204 S500
G1 F1500 X122.701 Y158.339 E164.77406
M204 S2000
G0 F7500 X123.267 Y158.339
M204 S500
G1 F1500 X76.159 Y111.232 E166.98986
M204 S2000
G0 F7500 X76.159 Y110.666
M204 S500
G1 F1500 X123.832 Y158.339 E169.23225
M204 S2000
G0 F7500 X124.398 Y158.339
M204 S500
