;FLAVOR:Marlin
;TIME:11699
;Filament used: 11.7586m
;Layer height: 0.2
;MINX:66.682
;MINY:45.033
;MINZ:0.2
;MAXX:153.303
;MAXY:174.975
;MAXZ:20
;Generated with Cura_SteamEngine 5.4.0
M82 ;absolute extrusion mode
; Ender 3 S1 Pro Start G-code
; M413 S0 ; Disable power loss recovery
G92 E0 ; Reset Extruder

; Prep surfaces before auto home for better accuracy
M140 S60
M104 S200

G28 O ; Home all untrusted axes
G1 Z10.0 F3000 ; Move Z Axis up little to prevent scratching of Heat Bed
G1 X0 Y0

M190 S60
M109 S200

G1 X0.1 Y20 Z0.3 F5000.0 ; Move to start position
G1 X0.1 Y200.0 Z0.3 F1500.0 E15 ; Draw the first line
G1 X0.4 Y200.0 Z0.3 F5000.0 ; Move to side a little
G1 X0.4 Y20 Z0.3 F1500.0 E30 ; Draw the second line
G92 E0 ; Reset Extruder
G1 Z2.0 F3000 ; Move Z Axis up little to prevent scratching of Heat Bed
G1 X5 Y20 Z0.3 F5000.0 ; Move over to prevent blob squish

G92 E0
G92 E0
G1 F2400 E-0.8
;LAYER_COUNT:100
;LAYER:0
M107
M204 S2000
G0 F7500 X76.425 Y60.877 Z0.2
M204 S500
;TYPE:SKIRT
G1 F2400 E0
G1 F1500 X77.402 Y59.679 E0.05142
G1 X77.854 Y59.168 E0.07411
G1 X78.865 Y58.07 E0.12375
G1 X79.205 Y57.716 E0.14007
G1 X80.38 Y56.559 E0.19492
G1 X81.541 Y55.483 E0.24757
G1 X82.015 Y55.077 E0.26833
G1 X83.175 Y54.125 E0.31824
G1 X83.569 Y53.818 E0.33485
G1 X84.928 Y52.811 E0.39111
G1 X85.939 Y52.113 E0.43197
G1 X87.125 Y51.35 E0.47888
G1 X88.376 Y50.593 E0.52751
G1 X88.999 Y50.24 E0.55132
G1 X90.642 Y49.386 E0.61291
G1 X91.088 Y49.17 E0.62939
G1 X92.572 Y48.495 E0.68362
G1 X93.75 Y48.004 E0.72607
G1 X95.068 Y47.506 E0.77293
G1 X96.111 Y47.143 E0.80966
G1 X96.531 Y47.009 E0.82432
G1 X97.87 Y46.609 E0.8708
G1 X99.305 Y46.223 E0.92023
G1 X99.962 Y46.066 E0.94269
G1 X101.8 Y45.698 E1.00504
G1 X102.27 Y45.616 E1.02091
G1 X103.916 Y45.374 E1.07624
G1 X105.426 Y45.197 E1.12681
G1 X106.117 Y45.144 E1.14986
G1 X107.63 Y45.06 E1.20026
G1 X108.119 Y45.045 E1.21653
G1 X109.508 Y45.033 E1.26273
G1 X110.607 Y45.05 E1.29929
G1 X111.052 Y45.069 E1.3141
G1 X112.731 Y45.175 E1.37006
G1 X113.509 Y45.242 E1.39603
G1 X113.971 Y45.293 E1.41149
G1 X115.377 Y45.481 E1.45867
G1 X116.428 Y45.645 E1.49405
G1 X116.887 Y45.729 E1.50957
G1 X118.287 Y46.016 E1.5571
G1 X119.373 Y46.268 E1.59418
G1 X121.11 Y46.742 E1.65407
G1 X122.18 Y47.069 E1.69128
G1 X122.608 Y47.211 E1.70628
G1 X124.176 Y47.774 E1.76169
G1 X124.911 Y48.057 E1.78789
G1 X125.334 Y48.232 E1.80311
G1 X126.631 Y48.799 E1.85019
G1 X127.599 Y49.25 E1.88571
G1 X128.016 Y49.457 E1.9012
G1 X129.531 Y50.254 E1.95813
G1 X130.539 Y50.822 E1.99661
G1 X131.144 Y51.183 E2.02005
G1 X132.664 Y52.165 E2.08023
G1 X133.069 Y52.442 E2.09655
G1 X134.231 Y53.277 E2.14415
G1 X135.093 Y53.928 E2.18007
G1 X135.45 Y54.213 E2.19527
G1 X136.76 Y55.305 E2.25199
G1 X137.356 Y55.829 E2.27839
G1 X137.689 Y56.136 E2.29345
G1 X138.884 Y57.283 E2.34854
G1 X139.43 Y57.834 E2.37434
G1 X139.754 Y58.175 E2.38999
G1 X140.738 Y59.258 E2.43866
G1 X141.436 Y60.066 E2.47417
G1 X141.719 Y60.41 E2.48898
G1 X142.58 Y61.503 E2.53526
G1 X143.246 Y62.392 E2.57221
G1 X143.504 Y62.754 E2.58699
G1 X144.284 Y63.903 E2.63318
G1 X144.888 Y64.84 E2.67026
G1 X145.114 Y65.212 E2.68474
G1 X145.971 Y66.691 E2.74159
G1 X146.556 Y67.784 E2.78282
G1 X147.28 Y69.269 E2.83777
G1 X147.773 Y70.352 E2.87735
G1 X148.175 Y71.316 E2.91209
G1 X148.715 Y72.744 E2.96287
G1 X148.875 Y73.2 E2.97894
G1 X149.389 Y74.784 E3.03433
G1 X149.61 Y75.522 E3.05995
G1 X149.731 Y75.966 E3.07526
G1 X150.088 Y77.389 E3.12405
G1 X150.319 Y78.412 E3.15894
G1 X150.409 Y78.863 E3.17423
G1 X150.708 Y80.572 E3.23194
G1 X150.879 Y81.788 E3.27278
G1 X151.026 Y83.173 E3.3191
G1 X151.115 Y84.283 E3.35614
G1 X151.142 Y84.738 E3.3713
G1 X151.195 Y86.366 E3.42548
G1 X151.202 Y87.2 E3.45322
G1 X151.196 Y87.661 E3.46855
G1 X151.037 Y91.711 E3.60336
G1 X151.003 Y94.23 E3.68715
G1 X151.041 Y96.747 E3.77087
G1 X151.148 Y99.229 E3.8535
G1 X151.33 Y101.768 E3.93817
G1 X151.577 Y104.238 E4.02073
G1 X151.908 Y106.806 E4.10685
G1 X152.292 Y109.252 E4.1892
G1 X152.639 Y111.143 E4.25314
G1 X152.871 Y112.336 E4.29356
G1 X153.026 Y113.271 E4.32509
G1 X153.107 Y113.903 E4.34628
G1 X153.227 Y115.145 E4.38778
G1 X153.272 Y115.792 E4.40935
G1 X153.296 Y116.424 E4.43039
G1 X153.303 Y117.702 E4.47289
G1 X153.288 Y118.32 E4.49346
G1 X153.256 Y118.954 E4.51457
G1 X153.176 Y119.926 E4.54701
G1 X153.07 Y120.891 E4.5793
G1 X152.981 Y121.506 E4.59996
G1 X152.766 Y122.716 E4.64084
G1 X152.638 Y123.33 E4.6617
G1 X152.489 Y123.954 E4.68304
G1 X152.125 Y125.277 E4.72868
G1 X151.939 Y125.884 E4.74979
G1 X151.747 Y126.449 E4.76964
G1 X151.477 Y127.183 E4.79565
G1 X151.11 Y128.108 E4.82875
G1 X150.841 Y128.723 E4.85108
G1 X150.41 Y129.628 E4.88442
G1 X149.973 Y130.487 E4.91647
G1 X149.663 Y131.046 E4.93773
G1 X149.197 Y131.828 E4.96801
G1 X148.68 Y132.649 E5.00028
G1 X148.318 Y133.18 E5.02165
G1 X147.582 Y134.188 E5.06317
G1 X147.184 Y134.703 E5.08481
G1 X146.775 Y135.199 E5.1062
G1 X146.148 Y135.918 E5.13793
G1 X145.522 Y136.598 E5.16867
G1 X145.038 Y137.087 E5.19155
G1 X143.847 Y138.216 E5.24613
G1 X142.84 Y139.143 E5.29166
G1 X141.04 Y140.889 E5.37506
G1 X139.274 Y142.705 E5.45931
G1 X137.57 Y144.556 E5.54299
G1 X135.922 Y146.455 E5.62662
G1 X134.333 Y148.392 E5.70995
G1 X132.765 Y150.418 E5.79516
G1 X131.298 Y152.428 E5.87792
G1 X129.877 Y154.497 E5.96141
G1 X128.521 Y156.595 E6.04449
G1 X127.204 Y158.764 E6.12889
G1 X125.945 Y160.978 E6.2136
G1 X124.772 Y163.18 E6.29659
G1 X123.475 Y165.798 E6.39376
G1 X122.956 Y166.727 E6.42915
G1 X122.59 Y167.307 E6.45196
G1 X121.887 Y168.293 E6.49224
G1 X121.312 Y169.011 E6.52284
G1 X120.499 Y169.915 E6.56327
G1 X119.963 Y170.432 E6.58804
G1 X119.564 Y170.794 E6.60596
G1 X118.679 Y171.512 E6.64387
G1 X118.09 Y171.938 E6.66804
G1 X117.086 Y172.58 E6.70768
G1 X116.29 Y173.029 E6.73808
G1 X115.484 Y173.437 E6.76812
G1 X114.921 Y173.677 E6.78848
G1 X114.33 Y173.908 E6.80958
G1 X113.133 Y174.298 E6.85146
G1 X112.237 Y174.533 E6.88226
G1 X111.05 Y174.774 E6.92255
G1 X110.356 Y174.864 E6.94583
G1 X109.813 Y174.918 E6.96397
G1 X108.937 Y174.971 E6.99316
G1 X108.2 Y174.975 E7.01768
G1 X107.644 Y174.96 E7.03618
G1 X106.524 Y174.869 E7.07355
G1 X105.811 Y174.772 E7.09748
G1 X104.649 Y174.544 E7.13687
G1 X103.698 Y174.298 E7.16954
G1 X102.547 Y173.931 E7.20972
G1 X101.848 Y173.652 E7.23475
G1 X101.481 Y173.491 E7.24808
G1 X100.587 Y173.049 E7.28125
G1 X99.778 Y172.601 E7.31201
G1 X98.723 Y171.935 E7.35351
G1 X98.142 Y171.506 E7.37753
G1 X97.79 Y171.228 E7.39245
G1 X97.078 Y170.613 E7.42374
G1 X96.504 Y170.071 E7.45
G1 X95.568 Y169.065 E7.4957
G1 X94.958 Y168.316 E7.52783
G1 X94.293 Y167.401 E7.56545
G1 X93.863 Y166.712 E7.59246
G1 X93.584 Y166.227 E7.61107
G1 X93.168 Y165.428 E7.64103
G1 X92.878 Y164.79 E7.66434
G1 X92.597 Y164.119 E7.68854
G1 X91.569 Y161.762 E7.77406
G1 X90.479 Y159.442 E7.85932
G1 X89.359 Y157.225 E7.94193
G1 X88.152 Y154.994 E8.0263
G1 X86.905 Y152.834 E8.10925
G1 X85.587 Y150.701 E8.19265
G1 X84.189 Y148.569 E8.27744
G1 X82.759 Y146.519 E8.36058
G1 X81.28 Y144.523 E8.4432
G1 X79.696 Y142.505 E8.52853
G1 X78.091 Y140.575 E8.61202
G1 X76.421 Y138.678 E8.69608
G1 X74.664 Y136.796 E8.78171
G1 X74.195 Y136.306 E8.80427
G1 X73.77 Y135.842 E8.8252
G1 X73.373 Y135.384 E8.84536
G1 X72.749 Y134.622 E8.87812
G1 X72.15 Y133.847 E8.9107
G1 X71.786 Y133.342 E8.9314
G1 X71.277 Y132.589 E8.96163
G1 X70.745 Y131.753 E8.99459
G1 X70.421 Y131.206 E9.01573
G1 X69.946 Y130.34 E9.04859
G1 X69.512 Y129.501 E9.08
G1 X69.242 Y128.929 E9.10104
G1 X68.735 Y127.748 E9.14379
G1 X68.495 Y127.148 E9.16528
G1 X68.272 Y126.531 E9.1871
G1 X67.873 Y125.305 E9.22998
G1 X67.695 Y124.699 E9.25099
G1 X67.539 Y124.105 E9.27142
G1 X67.249 Y122.833 E9.31481
G1 X67.127 Y122.224 E9.33547
G1 X67.023 Y121.592 E9.35677
G1 X66.891 Y120.632 E9.389
G1 X66.79 Y119.703 E9.42008
G1 X66.742 Y119.062 E9.44146
G1 X66.698 Y118.044 E9.47535
G1 X66.682 Y117.109 E9.50645
G1 X66.695 Y116.476 E9.52751
G1 X66.758 Y115.213 E9.56957
G1 X66.807 Y114.59 E9.59036
G1 X66.878 Y113.96 E9.61144
G1 X67.101 Y112.358 E9.66524
G1 X67.423 Y109.785 E9.75149
G1 X67.667 Y107.26 E9.83586
G1 X67.834 Y104.802 E9.9178
G1 X67.937 Y102.234 E10.00328
G1 X67.966 Y99.758 E10.08564
G1 X67.923 Y97.214 E10.17027
G1 X67.811 Y94.73 E10.25297
G1 X67.427 Y89.953 E10.41236
G1 X67.341 Y88.269 E10.46845
G1 X67.321 Y87.469 E10.49506
G1 X67.32 Y87.013 E10.51023
G1 X67.354 Y85.331 E10.56618
G1 X67.419 Y84.096 E10.60732
G1 X67.579 Y82.322 E10.66656
G1 X67.731 Y81.113 E10.70709
G1 X67.946 Y79.771 E10.75229
G1 X68.15 Y78.663 E10.78976
G1 X68.244 Y78.216 E10.80496
G1 X68.609 Y76.655 E10.85828
G1 X68.825 Y75.826 E10.88677
G1 X68.948 Y75.397 E10.90161
G1 X69.45 Y73.777 E10.95802
G1 X69.935 Y72.367 E11.00762
G1 X70.201 Y71.68 E11.03212
G1 X70.773 Y70.299 E11.08184
G1 X70.97 Y69.854 E11.09802
G1 X71.686 Y68.341 E11.15369
G1 X72.256 Y67.231 E11.1952
G1 X73.089 Y65.744 E11.25189
G1 X73.752 Y64.65 E11.29443
G1 X74.633 Y63.308 E11.34783
G1 X75.109 Y62.622 E11.3756
G1 X75.379 Y62.251 E11.39086
G1 X76.425 Y60.877 E11.44829
M204 S2000
G0 F7500 X76.735 Y61.13
M204 S500
G1 F1500 X77.702 Y59.944 E11.49919
G1 X78.148 Y59.439 E11.5216
G1 X79.154 Y58.347 E11.57098
G1 X79.486 Y58.001 E11.58693
G1 X80.652 Y56.852 E11.64138
G1 X81.801 Y55.787 E11.69349
G1 X82.269 Y55.386 E11.71398
G1 X83.421 Y54.44 E11.76356
G1 X83.807 Y54.139 E11.77984
G1 X85.155 Y53.14 E11.83565
G1 X86.156 Y52.449 E11.8761
G1 X87.332 Y51.692 E11.92262
G1 X88.573 Y50.941 E11.97087
G1 X89.184 Y50.595 E11.99422
G1 X90.817 Y49.746 E12.05544
G1 X91.254 Y49.534 E12.07159
G1 X92.726 Y48.864 E12.12538
G1 X93.891 Y48.378 E12.16737
G1 X95.2 Y47.884 E12.2139
G1 X96.233 Y47.524 E12.25029
G1 X96.645 Y47.392 E12.26468
G1 X97.974 Y46.995 E12.31081
G1 X99.398 Y46.612 E12.35985
G1 X100.04 Y46.458 E12.38181
G1 X101.869 Y46.092 E12.44385
G1 X102.328 Y46.012 E12.45935
G1 X103.963 Y45.771 E12.51432
G1 X105.457 Y45.596 E12.56435
G1 X106.139 Y45.543 E12.5871
G1 X107.643 Y45.46 E12.6372
G1 X108.122 Y45.445 E12.65314
G1 X109.502 Y45.433 E12.69904
G1 X110.591 Y45.45 E12.73526
G1 X111.027 Y45.468 E12.74978
G1 X112.696 Y45.573 E12.8054
G1 X113.465 Y45.64 E12.83107
G1 X113.918 Y45.69 E12.84623
G1 X115.315 Y45.876 E12.8931
G1 X116.356 Y46.039 E12.92815
G1 X116.807 Y46.121 E12.9434
G1 X118.197 Y46.406 E12.99059
G1 X119.273 Y46.655 E13.02732
G1 X119.688 Y46.762 E13.04158
G1 X120.993 Y47.125 E13.08663
G1 X122.054 Y47.449 E13.12353
G1 X122.473 Y47.588 E13.13821
G1 X124.032 Y48.147 E13.1933
G1 X124.758 Y48.427 E13.21918
G1 X125.174 Y48.599 E13.23415
G1 X126.462 Y49.162 E13.2809
G1 X127.43 Y49.613 E13.31642
G1 X127.83 Y49.811 E13.33126
G1 X129.335 Y50.603 E13.38783
G1 X130.334 Y51.165 E13.42595
G1 X130.927 Y51.519 E13.44892
G1 X132.438 Y52.495 E13.50875
G1 X132.836 Y52.767 E13.52479
G1 X133.99 Y53.596 E13.57204
G1 X134.844 Y54.241 E13.60764
G1 X135.194 Y54.52 E13.62253
G1 X136.496 Y55.606 E13.67892
G1 X137.085 Y56.123 E13.70498
G1 X137.412 Y56.424 E13.71977
G1 X138.6 Y57.565 E13.77455
G1 X139.14 Y58.109 E13.80005
G1 X139.458 Y58.444 E13.81541
G1 X140.435 Y59.519 E13.86372
G1 X141.127 Y60.32 E13.89893
G1 X141.405 Y60.658 E13.91349
G1 X142.26 Y61.743 E13.95943
G1 X142.92 Y62.624 E13.99604
G1 X143.173 Y62.979 E14.01054
G1 X143.948 Y64.12 E14.05642
G1 X144.546 Y65.048 E14.09314
G1 X144.768 Y65.413 E14.10735
G1 X145.618 Y66.88 E14.16374
G1 X146.196 Y67.959 E14.20445
G1 X146.916 Y69.435 E14.25907
G1 X147.404 Y70.506 E14.29822
G1 X147.801 Y71.457 E14.33249
G1 X148.338 Y72.877 E14.38299
G1 X148.495 Y73.324 E14.39875
G1 X149.006 Y74.898 E14.45379
G1 X149.224 Y75.628 E14.47913
G1 X149.343 Y76.063 E14.49413
G1 X149.698 Y77.477 E14.54262
G1 X149.927 Y78.49 E14.57716
G1 X150.015 Y78.932 E14.59215
G1 X150.312 Y80.628 E14.64941
G1 X150.481 Y81.83 E14.68979
G1 X150.627 Y83.205 E14.73578
G1 X150.716 Y84.306 E14.77252
G1 X150.742 Y84.751 E14.78734
G1 X150.795 Y86.369 E14.84119
G1 X150.802 Y87.195 E14.86866
G1 X150.796 Y87.645 E14.88363
G1 X150.637 Y91.695 E15.01843
G1 X150.603 Y94.225 E15.10259
G1 X150.641 Y96.764 E15.18705
G1 X150.749 Y99.258 E15.27008
G1 X150.932 Y101.808 E15.35511
G1 X151.18 Y104.289 E15.43804
G1 X151.511 Y106.857 E15.52416
G1 X151.899 Y109.324 E15.60722
G1 X152.246 Y111.219 E15.67129
G1 X152.476 Y112.402 E15.71138
G1 X152.629 Y113.322 E15.7424
G1 X152.709 Y113.941 E15.76316
G1 X152.828 Y115.173 E15.80432
G1 X152.872 Y115.807 E15.82546
G1 X152.896 Y116.426 E15.84606
G1 X152.903 Y117.693 E15.8882
G1 X152.889 Y118.299 E15.90837
G1 X152.857 Y118.921 E15.92908
G1 X152.778 Y119.883 E15.96119
G1 X152.674 Y120.834 E15.993
G1 X152.587 Y121.436 E16.01323
G1 X152.374 Y122.635 E16.05374
G1 X152.249 Y123.237 E16.07419
G1 X152.103 Y123.848 E16.09508
G1 X151.742 Y125.16 E16.14034
G1 X151.56 Y125.756 E16.16107
G1 X151.372 Y126.311 E16.18056
G1 X151.105 Y127.036 E16.20625
G1 X150.744 Y127.948 E16.23888
G1 X150.48 Y128.551 E16.26077
G1 X150.053 Y129.447 E16.29378
G1 X149.623 Y130.293 E16.32535
G1 X149.319 Y130.841 E16.34619
G1 X148.858 Y131.615 E16.37615
G1 X148.349 Y132.424 E16.40794
G1 X147.995 Y132.944 E16.42887
G1 X147.265 Y133.944 E16.47005
G1 X146.875 Y134.449 E16.49127
G1 X146.474 Y134.936 E16.51225
G1 X145.854 Y135.647 E16.54363
G1 X145.238 Y136.317 E16.5739
G1 X144.763 Y136.797 E16.59636
G1 X143.576 Y137.922 E16.65075
G1 X142.561 Y138.856 E16.69663
G1 X140.761 Y140.602 E16.78004
G1 X138.987 Y142.426 E16.86466
G1 X137.276 Y144.285 E16.9487
G1 X135.62 Y146.193 E17.03273
G1 X134.024 Y148.138 E17.11641
G1 X132.449 Y150.173 E17.202
G1 X130.975 Y152.192 E17.28514
G1 X129.547 Y154.271 E17.36903
G1 X128.179 Y156.387 E17.45283
G1 X126.862 Y158.556 E17.53723
G1 X125.597 Y160.78 E17.62233
G1 X124.419 Y162.992 E17.70569
G1 X123.126 Y165.603 E17.80259
G1 X122.617 Y166.514 E17.8373
G1 X122.264 Y167.075 E17.85935
G1 X121.575 Y168.043 E17.89887
G1 X121.014 Y168.744 E17.92873
G1 X120.221 Y169.627 E17.9682
G1 X119.694 Y170.136 E17.99257
G1 X119.312 Y170.483 E18.00974
G1 X118.427 Y171.201 E18.04764
G1 X117.874 Y171.601 E18.07034
G1 X116.889 Y172.232 E18.10925
G1 X116.109 Y172.672 E18.13903
G1 X115.303 Y173.08 E18.16908
G1 X114.775 Y173.304 E18.18816
G1 X114.184 Y173.535 E18.20926
G1 X113.031 Y173.911 E18.2496
G1 X112.157 Y174.141 E18.27966
G1 X110.998 Y174.377 E18.319
G1 X110.316 Y174.466 E18.34187
G1 X109.789 Y174.519 E18.35949
G1 X108.935 Y174.571 E18.38794
G1 X108.21 Y174.575 E18.41206
G1 X107.676 Y174.561 E18.42983
G1 X106.556 Y174.47 E18.4672
G1 X105.888 Y174.379 E18.48962
G1 X104.726 Y174.151 E18.52901
G1 X103.819 Y173.917 E18.56016
G1 X102.695 Y173.559 E18.5994
G1 X102.008 Y173.285 E18.624
G1 X101.658 Y173.132 E18.6367
G1 X100.781 Y172.699 E18.66923
G1 X99.972 Y172.251 E18.69999
G1 X98.961 Y171.613 E18.73975
G1 X98.38 Y171.184 E18.76377
G1 X98.051 Y170.925 E18.7777
G1 X97.353 Y170.322 E18.80838
G1 X96.779 Y169.78 E18.83464
G1 X95.861 Y168.793 E18.87947
G1 X95.282 Y168.081 E18.90999
G1 X94.617 Y167.166 E18.94761
G1 X94.21 Y166.512 E18.97323
G1 X93.939 Y166.042 E18.99128
G1 X93.532 Y165.262 E19.02054
G1 X93.247 Y164.635 E19.04345
G1 X92.966 Y163.964 E19.06764
G1 X91.936 Y161.602 E19.15335
G1 X90.841 Y159.272 E19.23898
G1 X89.716 Y157.045 E19.32196
G1 X88.504 Y154.804 E19.4067
G1 X87.251 Y152.634 E19.49004
G1 X85.922 Y150.482 E19.57417
G1 X84.524 Y148.35 E19.65896
G1 X83.087 Y146.29 E19.7425
G1 X81.595 Y144.276 E19.82587
G1 X80.011 Y142.258 E19.91119
G1 X78.398 Y140.319 E19.99508
G1 X76.721 Y138.414 E20.07949
G1 X74.956 Y136.523 E20.16553
G1 X74.49 Y136.035 E20.18797
G1 X74.072 Y135.58 E20.20852
G1 X73.682 Y135.13 E20.22833
G1 X73.065 Y134.377 E20.26071
G1 X72.474 Y133.613 E20.29283
G1 X72.117 Y133.118 E20.31313
G1 X71.614 Y132.374 E20.343
G1 X71.089 Y131.55 E20.3755
G1 X70.772 Y131.013 E20.39624
G1 X70.301 Y130.156 E20.42876
G1 X69.874 Y129.33 E20.45969
G1 X69.604 Y128.758 E20.48073
G1 X69.106 Y127.6 E20.52265
G1 X68.871 Y127.012 E20.54371
G1 X68.652 Y126.407 E20.56511
G1 X68.257 Y125.192 E20.60761
G1 X68.082 Y124.597 E20.62824
G1 X67.929 Y124.016 E20.64822
G1 X67.641 Y122.755 E20.69124
G1 X67.522 Y122.159 E20.71145
G1 X67.419 Y121.538 E20.73239
G1 X67.289 Y120.589 E20.76425
G1 X67.189 Y119.673 E20.7949
G1 X67.142 Y119.045 E20.81584
